img/tags/link.svg

<svg aria-hidden="true" focusable="false" data-prefix="fas" data-icon="link" class="svg-inline--fa fa-link fa-w-16" role="img" xmlns="http://www.w3.org/2000/svg" viewBox="0 0 512 512"><path fill="currentColor" d="M326.612 185.391c59.747 59.809 58.927 155.698.36 214.59-.11.12-.24.25-.36.37l-67.2 67.2c-59.27 59.27-155.699 59.262-214.96 0-59.27-59.26-59.27-155.7 0-214.96l37.106-37.106c9.84-9.84 26.786-3.3 27.294 10.606.648 17.722 3.826 35.527 9.69 52.721 1.986 5.822.567 12.262-3.783 16.612l-13.087 13.087c-28.026 28.026-28.905 73.66-1.155 101.96 28.024 28.579 74.086 28.749 102.325.51l67.2-67.19c28.191-28.191 28.073-73.757 0-101.83-3.701-3.694-7.429-6.564-10.341-8.569a16.037 16.037 0 0 1-6.947-12.606c-.396-10.567 3.348-21.456 11.698-29.806l21.054-21.055c5.521-5.521 14.182-6.199 20.584-1.731a152.482 152.482 0 0 1 20.522 17.197zM467.547 44.449c-59.261-59.262-155.69-59.27-214.96 0l-67.2 67.2c-.12.12-.25.25-.36.37-58.566 58.892-59.387 154.781.36 214.59a152.454 152.454 0 0 0 20.521 17.196c6.402 4.468 15.064 3.789 20.584-1.731l21.054-21.055c8.35-8.35 12.094-19.239 11.698-29.806a16.037 16.037 0 0 0-6.947-12.606c-2.912-2.005-6.64-4.875-10.341-8.569-28.073-28.073-28.191-73.639 0-101.83l67.2-67.19c28.239-28.239 74.3-28.069 102.325.51 27.75 28.3 26.872 73.934-1.155 101.96l-13.087 13.087c-4.35 4.35-5.769 10.79-3.783 16.612 5.864 17.194 9.042 34.999 9.69 52.721.509 13.906 17.454 20.446 27.294 10.606l37.106-37.106c59.271-59.259 59.271-155.699.001-214.959z"></path></svg>

<svg width="512" height="512" viewBox="0 0 512 512" fill="none" xmlns="http://www.w3.org/2000/svg">
<path d="M326.612 185.391C386.359 245.2 385.539 341.089 326.972 399.981C326.862 400.101 326.732 400.231 326.612 400.351L259.412 467.551C200.142 526.821 103.713 526.813 44.452 467.551C-14.818 408.291 -14.818 311.851 44.452 252.591L81.558 215.485C91.398 205.645 108.344 212.185 108.852 226.091C109.5 243.813 112.678 261.618 118.542 278.812C120.528 284.634 119.109 291.074 114.759 295.424L101.672 308.511C73.646 336.537 72.767 382.171 100.517 410.471C128.541 439.05 174.603 439.22 202.842 410.981L270.042 343.791C298.233 315.6 298.115 270.034 270.042 241.961C266.341 238.267 262.613 235.397 259.701 233.392C257.641 231.977 255.94 230.101 254.734 227.912C253.528 225.723 252.85 223.283 252.754 220.786C252.358 210.219 256.102 199.33 264.452 190.98L285.506 169.925C291.027 164.404 299.688 163.726 306.09 168.194C313.422 173.314 320.289 179.068 326.612 185.391V185.391ZM467.547 44.449C408.286 -14.813 311.857 -14.821 252.587 44.449L185.387 111.649C185.267 111.769 185.137 111.899 185.027 112.019C126.461 170.911 125.64 266.8 185.387 326.609C191.71 332.932 198.577 338.686 205.908 343.805C212.31 348.273 220.972 347.594 226.492 342.074L247.546 321.019C255.896 312.669 259.64 301.78 259.244 291.213C259.148 288.716 258.47 286.276 257.264 284.087C256.058 281.898 254.357 280.022 252.297 278.607C249.385 276.602 245.657 273.732 241.956 270.038C213.883 241.965 213.765 196.399 241.956 168.208L309.156 101.018C337.395 72.779 383.456 72.949 411.481 101.528C439.231 129.828 438.353 175.462 410.326 203.488L397.239 216.575C392.889 220.925 391.47 227.365 393.456 233.187C399.32 250.381 402.498 268.186 403.146 285.908C403.655 299.814 420.6 306.354 430.44 296.514L467.546 259.408C526.817 200.149 526.817 103.709 467.547 44.449V44.449Z" fill="white"/>
</svg>
